X: 36761
T: Shelf, The
R: polka
M: 2/4
K: Dmajor
df Aa|Ad' Aa|A/c/e/c/ A/c/e/g/|fd d/c/B/c/|
df Aa|Ad' Aa|A/c/e/c/ A/c/e/g/|fd d2:|
f2 fd|fa a/g/f|g2 gb|b/a/g/f/ ag|
f2 fa|a/g/f g f/g/|ad f/e/c/d/|ed da|
f2 fd|fa a/g/f|g2 gb|b/a/g/f/ ag|
f2 fa|a/g/f g f/g/|ad f/e/c/d/|ed d b/c'/|
|:d'f a/f/d|cB B>d|cA B/c/d/e/|df a/b/c'/d'/|
d'f a/f/d|cB B>d|cA B/c/d/e/|fd d2:|
|:A/B/c/d/ e/f/g/a/|b a/^g/ a2|A/B/c/d/ e/f/ g|a/f/ d a/f/ d|
A/B/c/d/ e/f/g/a/|b a/^g/ a2|A/B/c/d/ e/f/ g|fd d2:|

